storage/app/icons/tabler/filled/align-box-bottom-center.svg

<!--
version: "2.4"
unicode: "f70e"
-->
<svg
  xmlns="http://www.w3.org/2000/svg"
  width="24"
  height="24"
  viewBox="0 0 24 24"
  fill="currentColor"
>
  <path d="M18.333 2c1.96 0 3.56 1.537 3.662 3.472l.005 .195v12.666c0 1.96 -1.537 3.56 -3.472 3.662l-.195 .005h-12.666a3.667 3.667 0 0 1 -3.662 -3.472l-.005 -.195v-12.666c0 -1.96 1.537 -3.56 3.472 -3.662l.195 -.005h12.666zm-9.333 13a1 1 0 0 0 -1 1v2l.007 .117a1 1 0 0 0 1.993 -.117v-2l-.007 -.117a1 1 0 0 0 -.993 -.883zm3 -4a1 1 0 0 0 -1 1v6l.007 .117a1 1 0 0 0 1.993 -.117v-6l-.007 -.117a1 1 0 0 0 -.993 -.883zm3 2a1 1 0 0 0 -1 1v4l.007 .117a1 1 0 0 0 1.993 -.117v-4l-.007 -.117a1 1 0 0 0 -.993 -.883z" />
</svg>

<svg xmlns="http://www.w3.org/2000/svg" width="24" height="24" fill="currentColor" viewBox="0 0 24 24"><path d="M18.333 2c1.96 0 3.56 1.537 3.662 3.472l.005.195v12.666c0 1.96-1.537 3.56-3.472 3.662l-.195.005H5.667a3.667 3.667 0 0 1-3.662-3.472L2 18.333V5.667c0-1.96 1.537-3.56 3.472-3.662L5.667 2zM9 15a1 1 0 0 0-1 1v2l.007.117A1 1 0 0 0 10 18v-2l-.007-.117A1 1 0 0 0 9 15m3-4a1 1 0 0 0-1 1v6l.007.117A1 1 0 0 0 13 18v-6l-.007-.117A1 1 0 0 0 12 11m3 2a1 1 0 0 0-1 1v4l.007.117A1 1 0 0 0 16 18v-4l-.007-.117A1 1 0 0 0 15 13"/></svg>
